!!!OTL: Simple Gifts
!!!COM: unknown
!!!ODT: 1750 (18th century)
!!!YOR: The Folksong Fake Book
!!!YOY: 2000
!!!AST: Spiritual
!!!YEC: Brian Luke, 2001
**kern	**harm
*k[f#]	*k[f#]
*M2/4	*M2/4
*G:	*G:
*>A	*>A
16d	.
16d	.
=1	=1
8g	I
16g	.
16a	.
16b	vi
16g	.
16b	.
16cc	.
=2	=2
8dd	iii
16dd	.
16dd	.
8b	vi
16a	.
16g	.
=3	=3
8a	ii
8a	.
8a	.
8a	.
=4	=4
16a	V
16b	.
16a	.
16f#	.
8d	.
8d	.
=5	=5
16g	I
16f#	.
16g	.
16a	.
8b	.
16a	Vb
16a	.
=6	=6
8b	vi
8cc	.
8.dd	iii
16d	.
=7	=7
8a	iib
16a	.
16b	.
8a	.
16g	.
16g	.
=8	=8
8a	V
16g	.
16f#	.
4g	I;
*>B	*>B
=9	=9
4dd	iii
8.b	vi
16a	.
=10	=10
16b	iii
16cc	.
16b	.
16a	.
8.g	IV
16a	.
=11	=11
8b	I
16b	.
16cc	.
8dd	.
8b	.
=12	=12
8a	V
16a	.
16b	.
8.a	.
16d	.
=13	=13
4g	I
8.g	IV
16a	.
=14	=14
8b	I
16b	.
16cc	.
8dd	.
16b	.
16b	.
=15	=15
8a	iib
8a	.
8b	V
16b	.
16a	.
=16	=16
8g	I
8g	IV
4g	I;
*-	*-
